styles/1/Numix/64/actions/brown-add-folders-to-archive.svg

<?xml version="1.0" encoding="UTF-8" standalone="no"?>
<svg
   xmlns:dc="http://purl.org/dc/elements/1.1/"
   xmlns:cc="http://creativecommons.org/ns#"
   xmlns:rdf="http://www.w3.org/1999/02/22-rdf-syntax-ns#"
   xmlns:svg="http://www.w3.org/2000/svg"
   xmlns="http://www.w3.org/2000/svg"
   xmlns:sodipodi="http://sodipodi.sourceforge.net/DTD/sodipodi-0.dtd"
   xmlns:inkscape="http://www.inkscape.org/namespaces/inkscape"
   width="64"
   height="64"
   viewBox="0 0 64 64"
   id="svg2"
   version="1.1"
   inkscape:version="0.91 r"
   sodipodi:docname="brown-add-folders-to-archive.svg">
  <metadata
     id="metadata20">
    <rdf:RDF>
      <cc:Work
         rdf:about="">
        <dc:format>image/svg+xml</dc:format>
        <dc:type
           rdf:resource="http://purl.org/dc/dcmitype/StillImage" />
      </cc:Work>
    </rdf:RDF>
  </metadata>
  <defs
     id="defs18" />
  <sodipodi:namedview
     pagecolor="#ffffff"
     bordercolor="#666666"
     borderopacity="1"
     objecttolerance="10"
     gridtolerance="10"
     guidetolerance="10"
     inkscape:pageopacity="0"
     inkscape:pageshadow="2"
     inkscape:window-width="1366"
     inkscape:window-height="747"
     id="namedview16"
     showgrid="true"
     inkscape:zoom="7.375"
     inkscape:cx="1.7071603"
     inkscape:cy="28.230675"
     inkscape:window-x="0"
     inkscape:window-y="21"
     inkscape:window-maximized="1"
     inkscape:current-layer="svg2">
    <inkscape:grid
       type="xygrid"
       id="grid3006" />
  </sodipodi:namedview>
  <path
     style="font-size:medium;font-style:normal;font-variant:normal;font-weight:normal;font-stretch:normal;text-indent:0;text-align:start;text-decoration:none;line-height:normal;letter-spacing:normal;word-spacing:normal;text-transform:none;direction:ltr;block-progression:tb;writing-mode:lr-tb;text-anchor:start;baseline-shift:baseline;color:#000000;fill:#8d6e63;fill-opacity:1;fill-rule:nonzero;stroke:none;stroke-width:2.28612947;marker:none;visibility:visible;display:inline;overflow:visible;enable-background:accumulate;font-family:Sans;-inkscape-font-specification:Sans;opacity:0.4"
     d="M 2.0625 24 C 0.93308402 24.110974 -0.018412004 25.177795 0 26.3125 L 0 61.6875 C -0.014000004 62.902076 1.097925 64.013967 2.3125 64 L 36 64 L 36 56 L 24 56 L 24 36 L 36 36 L 36 28 L 34 28 L 34 26.3125 C 34.01375 25.118713 32.943717 24.018905 31.75 24 L 2.3125 24 C 2.22925 23.9955 2.145749 23.9955 2.0625 24 z "
     id="path3912-7" />
  <path
     style="font-size:medium;font-style:normal;font-variant:normal;font-weight:normal;font-stretch:normal;text-indent:0;text-align:start;text-decoration:none;line-height:normal;letter-spacing:normal;word-spacing:normal;text-transform:none;direction:ltr;block-progression:tb;writing-mode:lr-tb;text-anchor:start;baseline-shift:baseline;color:#000000;fill:#8d6e63;fill-opacity:1;fill-rule:nonzero;stroke:none;stroke-width:2.28612947;marker:none;visibility:visible;display:inline;overflow:visible;enable-background:accumulate;font-family:Sans;-inkscape-font-specification:Sans"
     d="M 10.0625 0 C 8.9330838 0.110974 7.9815877 1.177795 8 2.3125 L 8 37.6875 C 7.986 38.902076 9.0979248 40.013967 10.3125 40 L 24 40 L 24 36 L 36 36 L 36 24 L 56 24 L 56 36 L 64 36 L 64 6.3125 C 64.014 5.097926 62.902076 3.986032 61.6875 4 L 42 4 L 42 2.3125 C 42.01375 1.118713 40.943717 0.018905 39.75 0 L 10.3125 0 C 10.22925 -0.0045 10.145749 -0.0045 10.0625 0 z "
     id="path3912" />
  <path
     style="fill:#859900"
     d="M 64 40 L 52 40 L 52 28 L 40 28 L 40 40 L 28 40 L 28 52 L 40 52 L 40 64 L 52 64 L 52 52 L 64 52 Z "
     id="path14" />
</svg>

<svg xmlns="http://www.w3.org/2000/svg" viewBox="0 0 64 64">
 <path d="m 2.063 24 c -1.129 0.111 -2.081 1.178 -2.063 2.313 l 0 35.38 c -0.014 1.215 1.098 2.326 2.313 2.313 l 33.688 0 l 0 -8 l -12 0 l 0 -20 l 12 0 l 0 -8 l -2 0 l 0 -1.688 c 0.014 -1.194 -1.056 -2.294 -2.25 -2.313 l -29.438 0 c -0.083 -0.005 -0.167 -0.005 -0.25 0 z" style="visibility:visible;fill:#8d6e63;opacity:0.4;fill-opacity:1;stroke:none;display:inline;color:#000;fill-rule:nonzero"/>
 <path d="m 10.06 0 c -1.129 0.111 -2.081 1.178 -2.063 2.313 l 0 35.38 c -0.014 1.215 1.098 2.326 2.313 2.313 l 13.688 0 l 0 -4 l 12 0 l 0 -12 l 20 0 l 0 12 l 8 0 l 0 -29.688 c 0.014 -1.215 -1.098 -2.326 -2.313 -2.313 l -19.688 0 l 0 -1.688 c 0.014 -1.194 -1.056 -2.294 -2.25 -2.313 l -29.438 0 c -0.083 -0.005 -0.167 -0.005 -0.25 0 z" style="visibility:visible;fill:#8d6e63;fill-opacity:1;stroke:none;display:inline;color:#000;fill-rule:nonzero"/>
 <path d="m 64 40 l -12 0 l 0 -12 l -12 0 l 0 12 l -12 0 l 0 12 l 12 0 l 0 12 l 12 0 l 0 -12 l 12 0 Z" style="fill:#859900"/>
</svg>
